gtk-icons/Papirus-GTK/16x16/mimetypes/application-x-addon.svg

<?xml version="1.0" encoding="UTF-8" standalone="no"?>
<svg
   xmlns:dc="http://purl.org/dc/elements/1.1/"
   xmlns:cc="http://creativecommons.org/ns#"
   xmlns:rdf="http://www.w3.org/1999/02/22-rdf-syntax-ns#"
   xmlns:svg="http://www.w3.org/2000/svg"
   xmlns="http://www.w3.org/2000/svg"
   xmlns:sodipodi="http://sodipodi.sourceforge.net/DTD/sodipodi-0.dtd"
   xmlns:inkscape="http://www.inkscape.org/namespaces/inkscape"
   width="16px"
   height="16px"
   viewBox="0 0 16 16"
   version="1.1"
   id="svg2"
   inkscape:version="0.91 r"
   sodipodi:docname="application-x-addon.svg">
  <metadata
     id="metadata13">
    <rdf:RDF>
      <cc:Work
         rdf:about="">
        <dc:format>image/svg+xml</dc:format>
        <dc:type
           rdf:resource="http://purl.org/dc/dcmitype/StillImage" />
      </cc:Work>
    </rdf:RDF>
  </metadata>
  <defs
     id="defs11" />
  <sodipodi:namedview
     pagecolor="#ffffff"
     bordercolor="#666666"
     borderopacity="1"
     objecttolerance="10"
     gridtolerance="10"
     guidetolerance="10"
     inkscape:pageopacity="0"
     inkscape:pageshadow="2"
     inkscape:window-width="1535"
     inkscape:window-height="876"
     id="namedview9"
     showgrid="false"
     inkscape:zoom="14.75"
     inkscape:cx="-4.0338983"
     inkscape:cy="8"
     inkscape:window-x="65"
     inkscape:window-y="24"
     inkscape:window-maximized="1"
     inkscape:current-layer="svg2" />
  <g
     id="surface1"
     transform="matrix(1.12,0,0,1.12,-0.96,-0.96)">
    <path
       style="fill:#2178bd;fill-opacity:1;fill-rule:nonzero;stroke:none"
       d="M 6.875,1.75 C 6.160156,1.75 5.5,2.328125 5.5,3.042969 L 5.5,4.25 2.613281,4.25 C 2.132812,4.25 1.75,4.71875 1.75,5.199219 l 0,2.550781 1.292969,0 C 3.757812,7.75 4.25,8.285156 4.25,9 c 0,0.714844 -0.492188,1.25 -1.207031,1.25 l -1.292969,0 0,3.136719 C 1.75,13.867188 2.132812,14.25 2.613281,14.25 l 2.886719,0 0,-0.863281 C 5.5,12.671875 6.160156,12 6.875,12 c 0.714844,0 1.402344,0.671875 1.375,1.386719 l 0,0.863281 2.550781,0 c 0.480469,0 0.960938,-0.382812 0.949219,-0.863281 l 0,-2.886719 1.207031,0 C 13.671875,10.5 14.25,9.839844 14.25,9.125 14.25,8.410156 13.671875,7.75 12.957031,7.75 l -1.207031,0 0,-2.550781 C 11.75,4.71875 11.277344,4.234375 10.800781,4.25 L 8.25,4.25 8.25,3.042969 C 8.25,2.328125 7.589844,1.75 6.875,1.75 Z m 0,0"
       id="path5"
       inkscape:connector-curvature="0" />
    <path
       style="fill:#ffffff;fill-opacity:0.10196102;fill-rule:nonzero;stroke:none"
       d="M 6.875,1.75 C 6.160156,1.75 5.5,2.328125 5.5,3.042969 l 0,0.5 C 5.5,2.828125 6.160156,2.25 6.875,2.25 7.589844,2.25 8.25,2.828125 8.25,3.542969 l 0,-0.5 C 8.25,2.328125 7.589844,1.75 6.875,1.75 Z M 2.613281,4.25 C 2.132812,4.25 1.75,4.71875 1.75,5.199219 l 0,0.5 C 1.75,5.21875 2.132812,4.75 2.613281,4.75 l 2.886719,0 0,-0.5 z m 5.636719,0 0,0.5 2.550781,0 C 11.277344,4.734375 11.75,5.21875 11.75,5.699219 l 0,-0.5 C 11.75,4.71875 11.277344,4.234375 10.800781,4.25 Z m 3.5,3.5 0,0.5 1.207031,0 c 0.632813,0 1.152344,0.511719 1.269531,1.125 C 14.242188,9.292969 14.25,9.210938 14.25,9.125 14.25,8.410156 13.671875,7.75 12.957031,7.75 Z m -7.523438,1.5 c -0.097656,0.585938 -0.554687,1 -1.183593,1 l -1.292969,0 0,0.5 1.292969,0 C 3.757812,10.75 4.25,10.214844 4.25,9.5 4.25,9.414062 4.242188,9.332031 4.226562,9.25 Z m 0,0"
       id="path7"
       inkscape:connector-curvature="0" />
  </g>
</svg>

<?xml version="1.0" encoding="UTF-8" standalone="no"?>
<svg id="svg2" xmlns:rdf="http://www.w3.org/1999/02/22-rdf-syntax-ns#" xmlns="http://www.w3.org/2000/svg" height="16px" width="16px" version="1.1" xmlns:cc="http://creativecommons.org/ns#" xmlns:dc="http://purl.org/dc/elements/1.1/" viewBox="0 0 16 16">
 <metadata id="metadata13">
  <rdf:RDF>
   <cc:Work rdf:about="">
    <dc:format>image/svg+xml</dc:format>
    <dc:type rdf:resource="http://purl.org/dc/dcmitype/StillImage"/>
   </cc:Work>
  </rdf:RDF>
 </metadata>
 <g id="surface1" transform="matrix(1.12 0 0 1.12 -.96 -.96)">
  <path id="path5" d="m6.875 1.75c-0.7148 0-1.375 0.5781-1.375 1.293v1.207h-2.8867c-0.4805 0-0.8633 0.4688-0.8633 0.9492v2.5508h1.293c0.7148 0 1.207 0.5352 1.207 1.25 0 0.71484-0.49219 1.25-1.207 1.25h-1.293v3.1367c0 0.48 0.3828 0.863 0.8633 0.863h2.8867v-0.86328c0-0.715 0.6602-1.387 1.375-1.387 0.71484 0 1.4023 0.67188 1.375 1.3867v0.86328h2.5508c0.48047 0 0.96094-0.38281 0.94922-0.86328v-2.8867h1.207c0.715 0 1.293-0.6602 1.293-1.375s-0.578-1.375-1.293-1.375h-1.207v-2.5508c0-0.4804-0.473-0.9648-0.949-0.9492h-2.551v-1.207c0-0.7149-0.6602-1.293-1.375-1.293z" fill="#2178bd"/>
  <path id="path7" d="m6.875 1.75c-0.7148 0-1.375 0.5781-1.375 1.293v0.5c0-0.7149 0.6602-1.293 1.375-1.293s1.375 0.5781 1.375 1.293v-0.5c0-0.7149-0.6602-1.293-1.375-1.293zm-4.2617 2.5c-0.4805 0-0.8633 0.4688-0.8633 0.9492v0.5c0-0.4804 0.3828-0.9492 0.8633-0.9492h2.8867v-0.5zm5.6367 0v0.5h2.5508c0.476-0.0156 0.949 0.4688 0.949 0.9492v-0.5c0-0.4804-0.473-0.9648-0.949-0.9492zm3.5 3.5v0.5h1.207c0.63281 0 1.1523 0.51172 1.2695 1.125 0.016-0.082 0.024-0.1641 0.024-0.25 0-0.7148-0.578-1.375-1.293-1.375zm-7.5234 1.5c-0.097656 0.58594-0.55469 1-1.1836 1h-1.293v0.5h1.293c0.7148 0 1.207-0.535 1.207-1.25 0-0.0859-0.0078-0.168-0.0234-0.25z" fill-opacity=".10196" fill="#fff"/>
 </g>
</svg>
